assets/Cockroach/Flat/cockroach_flat.svg

<svg width="32" height="32" viewBox="0 0 32 32" fill="none" xmlns="http://www.w3.org/2000/svg">
<path d="M10.52 2C7.48001 2 5.01001 4.47 5.01001 7.51C5.01001 7.55 5.01001 7.59 5.02001 7.62V12.51C5.02001 12.78 5.24001 13 5.51001 13C5.78001 13 6.00001 12.78 6.00001 12.51V7.57C6.00001 5.05 8.03001 2.98 10.55 3C13.01 3.02 15.01 5.03 15.02 7.5C15.02 7.73 15.17 7.94 15.39 8C15.719 8.07977 16.0183 7.83146 16.02 7.52272C16.0218 7.83146 16.321 8.07977 16.65 8C16.87 7.94 17.02 7.73 17.02 7.5C17.03 5.03 19.03 3.02 21.49 3C24.01 2.98 26.04 5.05 26.04 7.57V12.51C26.04 12.78 26.26 13 26.53 13C26.8 13 27.02 12.78 27.02 12.51V7.62C27.03 7.59 27.03 7.55 27.03 7.51C27.03 4.47 24.56 2 21.52 2C18.4977 2 16.0225 4.45752 16.02 7.49687C16.0075 4.45752 13.5423 2 10.52 2Z" fill="#A56953"/>
<path d="M13.28 28.46L14.59 29.5C15.43 30.17 16.62 30.17 17.46 29.5L18.76 28.46C19.7548 27.6669 20.4592 26.5883 20.7959 25.3892L17 12L16 11L15 12L11.2469 25.3892C11.5846 26.5851 12.2879 27.6621 13.28 28.46Z" fill="#A56953"/>
<path d="M15 11.9999V19.71C15 22.21 13.54 24.45 11.26 25.44C11.1 24.9 11.02 24.33 11.02 23.75V21.5H8.57999C8.56999 21.5 8.55999 21.5 8.54999 21.51C8.53999 21.52 8.53999 21.53 8.53999 21.54L9.96999 26.53C10.1 27 10.01 27.49 9.71999 27.89C9.41999 28.28 8.96999 28.51 8.47999 28.51H7.76999C7.35999 28.51 7.01999 28.17 7.01999 27.76C7.01999 27.35 7.35999 27.01 7.76999 27.01H8.47999C8.48999 27.01 8.49999 27.01 8.51999 26.99C8.52999 26.97 8.52999 26.96 8.52999 26.95L7.09999 21.96C6.96999 21.49 7.05999 21 7.34999 20.61C7.63999 20.22 8.08999 20 8.57999 20H11.02V17.5667C10.9884 17.5439 10.9583 17.5183 10.93 17.49L9.34 15.9C9.25 15.81 9.15 15.8 9.1 15.81C9.05 15.81 8.95 15.83 8.87 15.93L6.88 18.29C6.48 18.74 5.92 19 5.32 19H4.75C4.34 19 4 18.67 4 18.25C4 17.83 4.34 17.5 4.75 17.5H5.32C5.47 17.5 5.62 17.43 5.72 17.32L7.71 14.96C8.04 14.57 8.52 14.33 9.03 14.31C9.54 14.29 10.04 14.48 10.4 14.84L11.02 15.46V13.88C11.02 12.84 11.86 12 12.9 12L12.09 11.9999C11.5827 11.9999 11.1893 11.6117 11.1451 11.1419L10.98 11.0899C10.03 10.7899 9.38999 9.91988 9.38999 8.91988V6.93988C9.38999 6.65988 9.23999 6.39988 8.98999 6.25988L8.40999 5.94988C8.04999 5.74988 7.90999 5.29988 8.10999 4.92988C8.30999 4.56988 8.75999 4.42988 9.12999 4.62988L9.69999 4.93988C10.43 5.33988 10.88 6.09988 10.88 6.92988V8.90988C10.88 9.24988 11.1 9.54988 11.42 9.64988L11.5964 9.70505C11.9899 8.95334 12.5639 8.31162 13.2616 7.84209C13.7147 6.76012 14.7836 6 16.03 6C17.2769 6 18.3461 6.76072 18.7989 7.84338C19.4957 8.31032 20.069 8.94747 20.4581 9.69427L20.6 9.64988C20.92 9.54988 21.14 9.24988 21.14 8.90988V6.92988C21.14 6.09988 21.59 5.33988 22.32 4.93988L22.89 4.62988C23.26 4.42988 23.71 4.56988 23.91 4.92988C24.11 5.29988 23.97 5.74988 23.61 5.94988L23.04 6.25988C22.79 6.39988 22.64 6.65988 22.64 6.93988V8.92988C22.64 9.92988 22 10.7999 21.05 11.0999L20.9007 11.1466C20.8514 11.6143 20.4656 11.9999 19.96 11.9999L19.14 12C20.18 12 21.02 12.84 21.02 13.88V15.54L21.72 14.84C22.08 14.48 22.58 14.29 23.09 14.31C23.6 14.33 24.08 14.57 24.41 14.96L26.4 17.32C26.5 17.43 26.65 17.5 26.8 17.5H27.37C27.78 17.5 28.12 17.84 28.12 18.25C28.12 18.66 27.78 19 27.37 19H26.8C26.2 19 25.64 18.74 25.24 18.29L23.25 15.93C23.17 15.83 23.07 15.81 23.02 15.81C22.97 15.8 22.87 15.81 22.78 15.9L21.19 17.49C21.1386 17.5414 21.0812 17.5837 21.02 17.6169V20H23.46C23.95 20 24.39 20.22 24.69 20.62C24.98 21 25.07 21.49 24.94 21.96L23.51 26.95C23.51 26.96 23.51 26.97 23.52 26.99C23.54 27.01 23.55 27.01 23.56 27.01H24.27C24.68 27.01 25.02 27.35 25.02 27.76C25.02 28.17 24.68 28.51 24.27 28.51H23.56C23.07 28.51 22.62 28.28 22.32 27.89C22.03 27.49 21.94 27 22.07 26.53L23.5 21.54C23.5 21.53 23.5 21.52 23.49 21.51C23.48 21.5 23.47 21.5 23.46 21.5H21.02V23.75C21.02 24.33 20.94 24.9 20.78 25.44C18.5 24.45 17 22.21 17 19.71V12L15 11.9999Z" fill="#6D4534"/>
</svg>

<svg xmlns="http://www.w3.org/2000/svg" width="32" height="32" fill="none"><path fill="#A56953" d="M10.52 2C7.48 2 5.01 4.47 5.01 7.51c0 .04 0 .08.01.11v4.89a.49.49 0 0 0 .98 0V7.57C6 5.05 8.03 2.98 10.55 3c2.46.02 4.46 2.03 4.47 4.5 0 .23.15.44.37.5a.505.505 0 0 0 .63-.477.505.505 0 0 0 .63.477c.22-.06.37-.27.37-.5.01-2.47 2.01-4.48 4.47-4.5 2.52-.02 4.55 2.05 4.55 4.57v4.94a.49.49 0 0 0 .98 0V7.62c.01-.03.01-.07.01-.11 0-3.04-2.47-5.51-5.51-5.51a5.508 5.508 0 0 0-5.5 5.497C16.008 4.457 13.542 2 10.52 2Z"/><path fill="#A56953" d="m13.28 28.46 1.31 1.04a2.3 2.3 0 0 0 2.87 0l1.3-1.04a6 6 0 0 0 2.036-3.07L17 12l-1-1-1 1-3.753 13.39a6.05 6.05 0 0 0 2.033 3.07Z"/><path fill="#6D4534" d="M15 12v7.71c0 2.5-1.46 4.74-3.74 5.73-.16-.54-.24-1.11-.24-1.69V21.5H8.58c-.01 0-.02 0-.03.01-.01.01-.01.02-.01.03l1.43 4.99c.13.47.04.96-.25 1.36-.3.39-.75.62-1.24.62h-.71c-.41 0-.75-.34-.75-.75s.34-.75.75-.75h.71c.01 0 .02 0 .04-.02.01-.02.01-.03.01-.04L7.1 21.96c-.13-.47-.04-.96.25-1.35.29-.39.74-.61 1.23-.61h2.44v-2.433a.738.738 0 0 1-.09-.077L9.34 15.9c-.09-.09-.19-.1-.24-.09-.05 0-.15.02-.23.12l-1.99 2.36c-.4.45-.96.71-1.56.71h-.57a.749.749 0 1 1 0-1.5h.57c.15 0 .3-.07.4-.18l1.99-2.36a1.831 1.831 0 0 1 2.69-.12l.62.62v-1.58c0-1.04.84-1.88 1.88-1.88h-.81a.947.947 0 0 1-.945-.858l-.165-.052c-.95-.3-1.59-1.17-1.59-2.17V6.94c0-.28-.15-.54-.4-.68l-.58-.31c-.36-.2-.5-.65-.3-1.02.2-.36.65-.5 1.02-.3l.57.31c.73.4 1.18 1.16 1.18 1.99v1.98c0 .34.22.64.54.74l.176.055a5.094 5.094 0 0 1 1.666-1.863 3 3 0 0 1 5.537.001 5.03 5.03 0 0 1 1.66 1.851l.141-.044c.32-.1.54-.4.54-.74V6.93c0-.83.45-1.59 1.18-1.99l.57-.31c.37-.2.82-.06 1.02.3.2.37.06.82-.3 1.02l-.57.31c-.25.14-.4.4-.4.68v1.99c0 1-.64 1.87-1.59 2.17l-.15.047a.946.946 0 0 1-.94.853h-.82c1.04 0 1.88.84 1.88 1.88v1.66l.7-.7a1.831 1.831 0 0 1 2.69.12l1.99 2.36c.1.11.25.18.4.18h.57c.41 0 .75.34.75.75s-.34.75-.75.75h-.57c-.6 0-1.16-.26-1.56-.71l-1.99-2.36a.302.302 0 0 0-.23-.12c-.05-.01-.15 0-.24.09l-1.59 1.59a.737.737 0 0 1-.17.127V20h2.44c.49 0 .93.22 1.23.62.29.38.38.87.25 1.34l-1.43 4.99c0 .01 0 .02.01.04.02.02.03.02.04.02h.71c.41 0 .75.34.75.75s-.34.75-.75.75h-.71c-.49 0-.94-.23-1.24-.62-.29-.4-.38-.89-.25-1.36l1.43-4.99c0-.01 0-.02-.01-.03-.01-.01-.02-.01-.03-.01h-2.44v2.25c0 .58-.08 1.15-.24 1.69A6.256 6.256 0 0 1 17 19.71V12h-2Z"/></svg>
